!!!COM: Frescobaldi, Girolamo
!!!CDT: 1583///-1643
!!!ONM: No. 3
!!!OTL: No. 3: Canzon Terza Canto solo
!!!OPR: Canzoni da sonare a una, due, tre et quattro, libro primo
!!!PPP: Venezia
!!!PDT: 1634
!!!URL: http://icking-music-archive.org/ByComposer/Frescobaldi.html
!!!ONB: Andrea Friggi, ed.
**kern	**kern
!Basso ad Organo	!Canto Solo
*staff2	*staff1
*Icello	*Ivioln
*clefC1	*clefG2
*k[]	*k[]
*met(C)	*met(C)
*M4/4	*M4/4
=1-	=1-
4a\	1r
8a\L	.
8a\J	.
4a\	.
4e/	.
=2	=2
8a\L	1r
8cc\	.
8b\	.
8a\J	.
4e/	.
8e/L	.
8e/J	.
=3	=3
*clefC3	*
4e\	4ee\
4A/	8ee\L
.	8ee\J
4e\	4ee\
4f\	4a/
=4	=4
4e\	8ee\L
.	8gg\
8d\L	8ff\
8c\J	8ee\J
4B/	8dd\L
.	8ee\
4d\	8ff\
.	8dd\J
=5	=5
*clefF4	*
4A\	8ee\L
.	8a\
8A\L	8cc\
8A\J	8dd\J
4A\	8ee\L
.	8ff#\J
4E\	4gg#\
=6	=6
8A\L	2aa\
8c\	.
8B\	.
8A\J	.
4G#\	2r
4A\	.
=7	=7
4F\	4a/
8E\L	8a/L
8D\J	8a/J
2A\	4a/
.	4e/
=8	=8
2F\	8a/L
.	8cc/
.	8b/
.	8a/J
2E\	8g#/L
.	8a/
.	8b/
.	8g#/J
=9	=9
4F\	8a\L
.	8b\
8E\L	8cc\
8D\J	8dd\J
2C#/	8ee\L
.	8ff\
.	8gg\
.	8ee\J
=10	=10
2D\	2ff\
2AA/	2ee\
=11	=11
4E\	1r
8E\L	.
8E\J	.
4E\	.
4AA/	.
=12	=12
8E\L	4ee\
8G\	.
8F\	8ee\L
8E\J	8ee\J
4A\	4ee\
8G\L	4a/
8F\J	.
=13	=13
4E\	8ee\L
.	8gg\
4C#/	8ff\
.	8ee\J
4D\	4ff\
8Cn/L	8ee\L
8BB/J	8dd\J
=14	=14
8AA/L	2cc\
8BB/	.
8C/	.
8D/J	.
2E\	4b\
.	[4ee\
=15	=15
2F\	4ee\]
.	2dd\
4G\	.
4A\	4cc\
=16	=16
4G\	8b/L
.	8g/J
4F#\	2cc\
2G\	.
.	4b\
=17	=17
1C	1cc
=18	=18
1BB	4r
.	4dd\
.	[2gg\
=19	=19
2C#/	4gg\]
.	8ff\L
.	8ee\J
2D\	4.ff\
.	8a/
=20	=20
1GG	8b-\L
.	8a\
.	8b-\
.	8cc\J
.	8dd\L
.	16ee\L
.	16ff\JJ
.	8.ee\L
.	16dd\Jk
=21	=21
1AA	8cc#\L
.	16dd\L
.	16ee\JJ
.	8a\L
.	8aa\J
.	8ee\L
.	8ff\
.	8cc#\
.	[8ee\J
=22	=22
1E	8ee\L]
.	16dd\L
.	16cc\JJ
.	16b/LL
.	16a/
.	16g#/
.	16f#/JJ
.	2g#/
=23	=23
*clefC3	*
4a\	1r
8e\L	.
8a\J	.
4g\	.
8f\L	.
8e\J	.
=24	=24
4d\	2r
4f\	.
2c#\	4aa\
.	8ee\L
.	8aa\J
=25	=25
2e\	8gg\L
.	16ff\L
.	16gg\JJ
.	8ff\L
.	8ee\J
4d\	4ff\
8A/L	8ff\L
8d/J	8ff\J
=26	=26
4c\	8ee\L
.	16dd\L
.	16ee\JJ
8B/L	8dd\L
8A/J	8cc\J
2G#/	8b\L
.	8dd\
.	8cc\
.	8b\J
=27	=27
*clefF4	*
4A\	2cc\
8E\L	.
8A\J	.
4G\	2b\
8F\L	.
8E\J	.
=28	=28
2F\	2r
2C/	4ee\
.	8cc\L
.	8ee\J
=29	=29
4BB/	8dd\L
.	16cc\L
.	16dd\JJ
4GG#/	8cc\L
.	8b\J
2AA/	8cc\L
.	8a\
.	8cc\
.	8dd\J
=30	=30
4E\	4b\
8AA/L	4cc\
8E/J	.
4D\	2r
8C/L	.
8BB/J	.
=31	=31
8AA/L	4aa\
8BB/	.
8C/	8ee\L
8D/J	8aa\J
4E\	8gg\L
.	16ff\L
.	16gg\JJ
8D/L	8ff\L
8C/J	8ee\J
=32	=32
4D\	4ff\
4E\	2ee\
2F\	.
.	4dd\
=33	=33
1E	4ee\
.	16dd\LL
.	16cc\
.	16b\
.	16a\JJ
.	[2b\
=34	=34
1C	4b\]
.	4a/
.	[2a/
=35	=35
1BB	4a/]
.	8g#/L
.	8a/J
.	8b/L
.	8a/
.	8a/
.	8g#/J
=36	=36
1AA	2a/
.	2r
=37	=37
*clefC3	*M3/2
*M3/2	*
2a\	2a/
2e\	2e/
2a\	2a/
=38	=38
1A	2.cc\
.	4cc\
2d\	4b\
.	4a/
=39	=39
2.G/	4b\
.	4cc\
.	4dd\
4g\	4b\
4f\	2ee\
4e\	.
=40	=40
2.d\	2.ff\
4d\	4ff\
4c\	4ee\
4B/	4dd\
=41	=41
*clefF4	*
2A\	1.ee
2E\	.
2A\	.
=42	=42
2.G\	1.r
4G\	.
4F\	.
4E\	.
=43	=43
2F\	2aa\
1C#	2ee\
.	2aa\
=44	=44
2.D\	2.ff\
4D\	4ff\
4C/	4ee\
4BB/	4dd\
=45	=45
1AA	4cc\
.	4a/
.	4cc\
.	4dd\
2E\	2b\
=46	=46
1F	4a/
.	4b\
.	4cc\
.	4dd\
2G\	2b\
=47	=47
*met(C)	*met(C)
*M4/4	*M4/4
2C/	1cc
2E\	.
=48	=48
1A	1r
=49	=49
1G	1r
=50	=50
*M2/2	*M2/2
4c\	2r
4A\	.
4c\	4ee\
=51	=51
4.B\	4dd\
.	4b\
8A\	.
4G\	4dd\
=52	=52
2.A\	4cc\
.	8a\L
.	8b\
.	8cc\
.	8dd\J
=53	=53
2.E\	4ee\
.	4cc\
.	4gg\
=54	=54
2.D\	4ff\
.	8dd\L
.	8ee\
.	8ff\
.	8gg\J
=55	=55
2.C/	4ee\
.	4cc\
.	4ee\
=56	=56
2.BB/	4dd\
.	8b\L
.	8cc\
.	8dd\
.	8ee\J
=57	=57
2.AA/	2.cc\
=58	=58
4A\	2.r
4E\	.
4A\	.
=59	=59
4F\	2.r
4E\	.
4D\	.
=60	=60
2.C#/	4aa\
.	4ee\
.	4aa\
=61	=61
4D\	4.ff\
4AA/	.
.	8ee\L
4D\	8ff\
.	8gg\J
=62	=62
4C/	2ee\
2AA/	.
.	4ff\
=63	=63
4BB-/	2dd\
2GG/	.
.	4ee\
=64	=64
4AA/	4.cc\
2FF/	.
.	8b\L
.	8cc\
.	8dd\J
=65	=65
4GG/	4b\
2EE/	4g/
.	4cc\
=66	=66
4FF/	4.a/
2D\	.
.	8g/L
.	8a/
.	8b/J
=67	=67
4C/	2cc\
2GG/	.
.	4b\
=68	=68
*met(C)	*met(C)
*M4/4	*M4/4
1C	1cc
=69	=69
2c\	1r
2G#\	.
=70	=70
2.A\	2r
.	[2ee\
4G\	.
=71	=71
1F	2ee\]
.	2dd\
=72	=72
2.E\	2cc\
.	[2b\
4D\	.
=73	=73
1C	2b\]
.	2a/
=74	=74
1BB	4b\
.	4cc\
.	8dd\L
.	8cc\
.	8cc\
.	8b\J
=75	=75
4AA/	1cc
4BB/	.
4C/	.
4D\	.
=76	=76
1E	2b\
.	2r
=77	=77
2A\	4r
.	4a/
2G#\	4.b\
.	8b\
=78	=78
4A\	4.cc\
4AA/	.
.	8cc#\
4.BB-/	8dd\L
.	8ee\
.	8ff\
8BBn/	8gg\J
=79	=79
4C/	4ee\
4C#/	4aa\
4D\	4aa\
4E\	4gg#\
=80	=80
4AA/	2aa\
4A\	.
4.B\	2r
8B\	.
=81	=81
*clefC4	*
4c\	4r
4c#\	4ee\
4d\	4.ff\
4D/	.
.	8ff#\
=82	=82
2E/	4.gg\
.	8gg#\
4F/	8aa\L
.	8ggn\
4A\	8ff\
.	8ee\J
=83	=83
4.B-\	4dd\
.	8gg\L
8Bn\	8ff\J
4.c\	8ee\L
.	8dd\J
.	4ee\
8c#\	.
=84	=84
4d\	8dd\L
.	8cc\J
4e\	4b\
2A\	2cc#\
=85	=85
4.d\	1r
8c\	.
8B\L	.
8A\J	.
4B\	.
=86	=86
4.A\	2r
8G/	.
8F#/L	4.dd\
8E/J	.
4F#/	.
.	8cc\
=87	=87
*clefF4	*
4.G\	8b/L
.	8a/J
.	4b\
8F\	.
8E\L	4.cc\
8D\J	.
4E\	.
.	8b\
=88	=88
4.F\	8a/L
.	8g/J
.	4a/
8E\	.
8D/L	4.b\
8C/J	.
4D\	.
.	8a/
=89	=89
4.E\	8g/L
.	8f#/J
.	4g#/
8D\	.
8C#/L	4.a/
8BB/J	.
4C#/	.
.	8gn/
=90	=90
4.D\	8f#/L
.	8e/
.	8f#/
8E\	8g/J
4F\	4.a/
8E\L	.
8D\J	8b\
=91	=91
1E	8cc\L
.	8b\J
.	8cc\L
.	16dd\L
.	16cc\JJ
.	2b\
=92	=92
2AA/	1a
2A\	.
=93	=93
2G#\	2r
2A\	8r
.	16ee\LL
.	16dd\JJ
.	8cc\L
.	16dd\L
.	16ee\JJ
=94	=94
2F\	8a\L
.	16aa\L
.	16gg\JJ
.	16ff\LL
.	16ee\
.	16dd\
.	16cc\JJ
2D\	8dd\L
.	16aa\L
.	16gg\JJ
.	16ff\LL
.	16ee\
.	16dd\
.	16cc\JJ
=95	=95
2D\	8dd/L
.	16a/L
.	16g/JJ
.	8f#/L
.	16dd/L
.	16cc/JJ
2G\	8b\L
.	16gg\L
.	16ff\JJ
.	16ee\LL
.	16dd\
.	16cc\
.	16b\JJ
=96	=96
2.C/	8cc\L
.	16gg\L
.	16ff\JJ
.	16ee\LL
.	16dd\
.	16cc\
.	16b\JJ
.	4cc\
4C/	4r
=97	=97
2F\	8r
.	8aa\L
.	8ff\
.	8aa\J
4C/	4gg\
4D\	16ff\LL
.	16ee\
.	16ff\
.	16gg\JJ
=98	=98
4AA/	4ee\
4D\	4dd\
2D\	4r
.	16ff\LL
.	16ee\
.	16ff\
.	16gg\JJ
=99	=99
4A\	4ee\
4D\	4dd\
2d\	8r
.	8ff\L
.	8dd\
.	8ff\J
=100	=100
4c\	4ee\
4A\	16ff\LL
.	16ee\
.	16dd\
.	16cc\JJ
4G\	4dd\
4C/	4cc\
=101	=101
4c\	4r
4A\	16ff\LL
.	16ee\
.	16dd\
.	16cc\JJ
4G\	4dd\
4C/	4cc\
=102	=102
2c\	8r
.	8ee\L
.	8cc\
.	8ee\J
4B\	4dd\
4G#\	16ee\LL
.	16dd\
.	16cc\
.	16b\JJ
=103	=103
4A\	4cc\
4F\	16dd\LL
.	16cc\
.	16b\
.	16a\JJ
4E\	4b\
4AA/	4a/
=104	=104
2A\	4r
.	16ee\LL
.	16dd\
.	16cc\
.	16b\JJ
4A\	4cc\
4F\	16dd\LL
.	16cc\
.	16b\
.	16a\JJ
=105	=105
4E\	4b\
4AA/	4a/
2r	2r
==	==
*-	*-
!!!ENC: Craig Stuart Sapp
!!!END: 2004/12/14/
